X:310
T: Crotty's Lament
N: O'Farrell's Pocket Companion v.4 (Sky ed. p.138)
N: "Irish" - "very old"
M: 4/4
L: 1/8
R: blank
Q: 100
K: G
GA|: B2 AG G2 G>A| B2B2B2 AG| A2A2A2A2|1 B2d2e2d2 :|
[2 B2d2e2dB|
d2 ef g2 B2| g2g2f2 ed| e>fg>f e>dBA|
GEGA B2 AG| E2 G>A G2 ||
